assets/companies/light/ibm.svg

<svg width="54" height="20" viewBox="0 0 54 20" fill="none" xmlns="http://www.w3.org/2000/svg">
<path d="M52.3957 18.8873C52.4803 18.8873 52.5292 18.8495 52.5292 18.7693V18.6892C52.5292 18.6113 52.4803 18.5735 52.3957 18.5735H52.1954V18.8851L52.3957 18.8873ZM52.1954 19.4703H51.9261V18.3621H52.4268C52.6761 18.3621 52.8029 18.509 52.8029 18.7115C52.8029 18.8873 52.7228 18.9986 52.6027 19.0453L52.8497 19.4681H52.5537L52.349 19.0898H52.1932L52.1954 19.4703ZM53.1612 18.9763V18.8383C53.1612 18.3932 52.8118 18.0438 52.3534 18.0438C52.2478 18.0415 52.1428 18.0603 52.0446 18.0992C51.9464 18.1381 51.8569 18.1963 51.7816 18.2704C51.7063 18.3445 51.6466 18.4329 51.6061 18.5304C51.5655 18.628 51.5449 18.7327 51.5456 18.8383V18.9763C51.5456 19.4214 51.8927 19.773 52.3534 19.773C52.4592 19.7754 52.5644 19.7565 52.6628 19.7174C52.7611 19.6784 52.8506 19.62 52.926 19.5457C53.0013 19.4714 53.061 19.3827 53.1014 19.2849C53.1418 19.1871 53.1622 19.0821 53.1612 18.9763ZM51.2963 18.9095C51.2963 18.2864 51.7681 17.8146 52.3534 17.8146C52.9409 17.8146 53.4105 18.2886 53.4105 18.9073C53.4146 19.0489 53.3904 19.19 53.3392 19.3221C53.288 19.4542 53.2109 19.5747 53.1124 19.6766C53.0138 19.7784 52.8959 19.8595 52.7656 19.915C52.6352 19.9706 52.4951 19.9995 52.3534 20C52.2119 19.9995 52.0719 19.9706 51.9418 19.9152C51.8116 19.8598 51.6938 19.7789 51.5953 19.6773C51.4968 19.5757 51.4196 19.4555 51.3683 19.3236C51.3169 19.1918 51.2925 19.051 51.2963 18.9095ZM36.0743 1.38867L35.5936 0H27.6711V1.38867H36.0743ZM36.9934 4.03694L36.5127 2.65049H27.6711V4.03917L36.9934 4.03694ZM42.8908 19.9421H49.8053V18.5535H42.8886L42.8908 19.9421ZM42.8908 17.2894H49.8053V15.903H42.8886L42.8908 17.2894ZM42.8908 14.6411H47.0391V13.2525H42.8886L42.8908 14.6411ZM42.8908 11.9907H47.0391V10.602H42.8886L42.8908 11.9907ZM42.8908 9.34016H47.0391V7.95149H39.1276L38.7382 9.07311L38.3487 7.95149H30.4373V9.34016H34.5877V8.06276L35.0328 9.34016H42.4435L42.8886 8.06276L42.8908 9.34016ZM47.0391 5.30099H40.0467L39.5638 6.68966H47.0391V5.30099ZM30.4373 11.9907H34.5877V10.602H30.4373V11.9907ZM30.4373 14.6389H34.5877V13.2525H30.4373V14.6389ZM27.6711 17.2894H34.5877V15.903H27.6711V17.2894ZM27.6711 19.9421H34.5877V18.5535H27.6711V19.9421ZM41.8827 0L41.402 1.38867H49.8053V0H41.8827ZM40.4829 4.03917H49.8075V2.65049H40.9636L40.4829 4.03917ZM30.4373 6.68744H37.9125L37.4318 5.30099H30.4373V6.68744ZM35.9608 11.9907H41.5155L42.0007 10.602H35.4757L35.9608 11.9907ZM36.8888 14.6389H40.5875L41.0727 13.2525H36.4037L36.8888 14.6389ZM37.8146 17.2894H39.6617L40.1469 15.903H37.3295L37.8146 17.2894ZM38.736 19.9421L39.2189 18.5535H38.2575L38.736 19.9421ZM11.0671 19.9288L21.2551 19.9421C22.6394 19.9421 23.8812 19.4147 24.8203 18.5535H11.0671V19.9288ZM21.8827 13.2525V14.6411H26.5383C26.5383 14.1605 26.4716 13.6953 26.3536 13.2525H21.8827ZM13.8355 14.6411H17.986V13.2525H13.8355V14.6411ZM21.8849 6.68966H26.3536C26.4716 6.2468 26.5383 5.78168 26.5383 5.30099H21.8849V6.68966ZM13.8355 6.68966H17.986V5.30099H13.8355V6.68966ZM21.2529 0.00222528H11.0671V1.3909H24.8203C23.8488 0.496211 22.5736 0.0003908 21.2529 0.00222528ZM25.8284 2.65272H11.0671V4.04139H26.387C26.2681 3.55453 26.0808 3.08698 25.8306 2.65272H25.8284ZM13.8333 7.95371V9.34239H24.6712C25.1319 8.95071 25.5213 8.48114 25.8262 7.95371H13.8333ZM24.6712 10.6042H13.8333V11.9929H25.8262C25.5232 11.4675 25.1326 10.9979 24.6712 10.6042ZM11.0649 17.2939H25.8284C26.0732 16.8644 26.2646 16.3992 26.3848 15.9052H11.0671L11.0649 17.2939ZM0 1.38867H9.6851V0H0V1.38867ZM0 4.03917H9.6851V2.65049H0V4.03917ZM2.76622 6.68966H6.91666V5.30099H2.76622V6.68966ZM2.76622 9.34016H6.91666V7.95149H2.76622V9.34016ZM2.76622 11.9884H6.91666V10.602H2.76622V11.9884ZM2.76622 14.6411H6.91666V13.2525H2.76622V14.6411ZM0 17.2916H9.6851V15.9052H0V17.2916ZM0 19.9444H9.6851V18.5557H0V19.9444Z" fill="#8B8D98"/>
</svg>

<svg xmlns="http://www.w3.org/2000/svg" width="54" height="20" fill="none" viewBox="0 0 54 20"><path fill="#8B8D98" d="M52.396 18.887c.084 0 .133-.038.133-.118v-.08c0-.078-.049-.116-.133-.116h-.2v.312zm-.2.583h-.27v-1.108h.5c.25 0 .377.147.377.35 0 .175-.08.287-.2.333l.247.423h-.296l-.205-.378h-.156zm.965-.494v-.138a.79.79 0 0 0-.808-.794.79.79 0 0 0-.807.794v.138a.79.79 0 0 0 .807.797.79.79 0 0 0 .808-.797m-1.865-.066c0-.624.472-1.095 1.057-1.095.588 0 1.057.474 1.057 1.092A1.063 1.063 0 0 1 52.354 20a1.06 1.06 0 0 1-1.057-1.09M36.074 1.389 35.594 0H27.67v1.389zm.92 2.648-.481-1.387H27.67v1.39zm5.897 15.905h6.914v-1.389H42.89zm0-2.653h6.914v-1.386H42.89zm0-2.648h4.148v-1.389h-4.15zm0-2.65h4.148v-1.389h-4.15zm0-2.65h4.148V7.95h-7.911l-.39 1.122-.39-1.122h-7.91v1.39h4.15V8.062l.445 1.277h7.41l.446-1.277zm4.148-4.04h-6.992l-.483 1.389h7.475zm-16.602 6.69h4.15v-1.389h-4.15zm0 2.648h4.15v-1.386h-4.15zm-2.766 2.65h6.917v-1.386H27.67zm0 2.653h6.917v-1.389H27.67zM41.883 0l-.481 1.389h8.403V0zm-1.4 4.04h9.325V2.65h-8.844zM30.437 6.686h7.476L37.432 5.3h-6.995zm5.524 5.304h5.555L42 10.602h-6.525zm.928 2.648h3.698l.486-1.386h-4.67zm.926 2.65h1.847l.485-1.386H37.33zm.921 2.653.483-1.389h-.962zm-27.669-.013 10.188.013a5.24 5.24 0 0 0 3.565-1.389H11.067zm10.816-6.676v1.388h4.655c0-.48-.066-.946-.184-1.389zm-8.047 1.388h4.15v-1.389h-4.15zm8.049-7.951h4.469c.118-.443.184-.908.184-1.389h-4.653zm-8.05 0h4.151V5.3h-4.15zM21.254.002H11.067v1.389H24.82A5.26 5.26 0 0 0 21.253.002m4.575 2.65h-14.76v1.39h15.319a5.3 5.3 0 0 0-.556-1.39zM13.833 7.955v1.388h10.838c.46-.391.85-.86 1.155-1.388zm10.838 2.65H13.833v1.389h11.993a5.3 5.3 0 0 0-1.155-1.389m-13.606 6.69h14.763c.245-.43.437-.895.557-1.389H11.067zM0 1.389h9.685V0H0zm0 2.65h9.685V2.65H0zm2.766 2.65h4.15V5.302h-4.15zm0 2.651h4.15V7.951h-4.15zm0 2.648h4.15v-1.386h-4.15zm0 2.653h4.15v-1.389h-4.15zM0 17.291h9.685v-1.386H0zm0 2.653h9.685v-1.388H0z"/></svg>
